source/img/icon-like min.svg

<?xml version="1.0" encoding="UTF-8"?>
<svg enable-background="new 0 0 22 20" version="1.0" viewBox="0 0 22 20" xml:space="preserve" xmlns="http://www.w3.org/2000/svg">
    <g transform="translate(-295 -464)">
      <g transform="translate(295 464)">
        <path d="m12.383 3.646l-0.637 2.929-0.527 2.425h8.681v2c0 0.018 0 0.037 1e-3 0.058l-2.901 6.942h-9v-9.971l0.014-0.015 4.369-4.368m-10.383 6.354v8-8m11.2-10l-6.6 6.6c-0.4 0.3-0.6 0.8-0.6 1.4v10c0 1.1 0.9 2 2 2h9c0.8 0 1.5-0.5 1.8-1.2l3-7.1c0.1-0.2 0.1-0.5 0.1-0.7v-2h0.1c0-1.1-0.9-2-2-2h-6.3l1-4.6v-0.3c0-0.4-0.2-0.8-0.4-1.1l-1.1-1zm-9.2 8h-4v12h4v-12zm18 1v0.044-0.044z"/>
      </g>
    </g>
</svg>

<svg version="1.0" viewBox="0 0 22 20" xmlns="http://www.w3.org/2000/svg"><path d="M12.383 3.646l-.637 2.929L11.219 9H19.9v2l.001.058L17 18H8V8.029l.014-.015 4.369-4.368M2 10v8-8M13.2 0L6.6 6.6c-.4.3-.6.8-.6 1.4v10c0 1.1.9 2 2 2h9c.8 0 1.5-.5 1.8-1.2l3-7.1c.1-.2.1-.5.1-.7V9h.1c0-1.1-.9-2-2-2h-6.3l1-4.6v-.3c0-.4-.2-.8-.4-1.1l-1.1-1zM4 8H0v12h4V8zm18 1v.044V9z"/></svg>
